X:768040
T:Mist Covered Mountains
H: 
C: Trad 
B: 
O:Kevin Fraser
Z:Kevin Fraser
Q:3/8=60
K:HP
M:6/8
L:1/8
R:March
U: R = ///
U: r = //
U: V = !accent!
V:M gstem=up stem=down name="Melody"
V:H gstem=up stem=down name="Harmony"
V:C gstem=up stem=down name="C-Harmony"
V:S gstem=up stem=down dyn=up stafflines=1 clef=perc middle=G name="Snare" sname="Snare"
V:B gstem=up stem=down clef=none dyn=up name="Bass"
V:T gstem=up stem=down clef=none dyn=up name="Tenor"
V:BB gstem=up stem=down name="Brass Bass" sname="ABCD-C" transpose=-1  octave=-1 clef=bass
V:BC gstem=up stem=down name="Brass Chord" sname="ABCD-D" transpose=-1
V:BD gstem=up stem=down name="Brass Chord 2" sname="ABCD-B" transpose=-1
V:P gstem=up stem=down name="Piano" octave=-1
I:MIDI=program 110
%%MIDI gchord
% %alignbars 80
%%score [M H]
V:M
%%MIDI program 110
%%MIDI vol 100
V:H
%%MIDI program 110
%%MIDI vol 100
V:B
%%MIDI vol 100
%%MIDI channel 10
%%MIDI drummap C 35
%%MIDI drummap A 35
%%MIDI drummap c 35
V:S
%%MIDI vol 100
%%MIDI channel 10
%%MIDI drummap C 38
%%MIDI drummap A 38
%%MIDI drummap c 38
%%MIDI drumon
%%landscape
[V:M][:{g}B3 {GdG}B3  |{g}f2{GdG}f {gfg}f>ec | {g}A3 {GdGe}A3 | {gcd}c>{e}B{d}c {gBd}B{e}A>{d}B |
w:        ho     dro  |   che emdemve chete e o | hen dariden | hete uo do         hoto un do
[V:M]| {Gdc}d3 {gef}e3 | {g}f>ga {cd}c>{e}B{d}A | {g}B>{d}cf {gef}e>d{g}c |{g}B3 {GdG}B3 :]
w:       tra    hete  |  che di I  odo uo den  |  ho do ve     hete a ho | ho   dro
[V:H][: {g}f>ed {gdc}d3 | {g}d2{GBG}d {gde}d>cA | {g}c2d {GdG}c3 | {gef}e>de {gde}dc>d |
[V:H]| {g}B3 {GdG}c3 | {Gdc}d>ef {gef}e>dc| {Gdc}d>ea |{gcd}c>BA | {g}f2d {GdG}d3 :]
[V:B][: X | X | X | X |
[V:B]| X | X | X | X :]
[V:S][: X | X | X | X |
[V:S]| X | X | X | X :]
[V:M][: {g}f3 {GdG}f3 | {gef}e>fa {fg}f>ec | {g}A2{GdGe}A {gef}e2c | {g}f2{GdG}f {gef}e>dc|
w:       che   emdemve |hete ve I  vete e o | hen dariden hete o   | che emdemve hete a o |
[V:H][: {g}d3 {GBG}d3 | {g}c>df {g}d>cA | {g}c2{GdG}c {g}c>de | {g}d2{GBG}d {gcd}c>BA |
[V:M]| {g}B3 {Gdc}d3 | {gef}e>fa {cd}c>{e}B{d}A | {g}B>{d}cf {gef}e>d{g}c |{g}B3 {GdG}B3 :]
w:   ho       tra    |  hete ve I odo uo den    | ho   do ve  hete a ho   | ho    dro
[V:H]|  {g}G3 {dG}B3 | {gcd}c>de {gef}e>dc | {g}d>ed {g}c>BA | {g}G3 {Gdc}d3 :]
[V:B][: X | X | X | X |
[V:B]| X | X | X | X :]
[V:S][: X | X | X | X |
[V:S]| X | X | X | X :]
[V:M][:"Accel"{g}B3 {GdG}B3  |{g}f>Bc {g}B2{GdG}B | {g}A3 {GdGe}A3 | {gcd}c>{e}B{g}c {gBd}B{e}A>{g}B |
[V:H][: {g}f>ed {gdc}d3 | {g}d2{GdG}A {gde}d>ed | {g}c2d {GdG}c3 | {gef}e>de {gde}dc>d |
[V:M]| {Gdc}d3 {gef}e3 | {g}f>ga {cd}c<{e}B{g}A | {g}B>{d}cf {gef}e<d{g}c |{g}B3 {GdG}B3 :]
[V:H][ {GdG}B3 {gcd}c3 | {Gdc}d3 {gef}e3 | {Gdc}d>ed {gcd}c<BA | {g}f2d {gdc}d3 :]
[V:B][: X | X | X | RA6 |
[V:B]| B3 z3 | B3 z3 | B3 z3 | B3 z3 :]
[V:S][: X | X | X | RA6- |
[V:S]| A3 z3 | X | X | (VRc>RARVc>RAVRc>RA :]
[V:M][: {g}f2{AGAG}A {g}f2{AGAG}A | {g}fga {fg}fec | {g}e2{AGAG}A {g}e2{AGAG}A | {g}fe{g}f {gef}edc|
[V:M]| {Gdc}d2{gdc}d {gef}e2{A}e| {gfg}fga {cd}c{e}B{d}A | {g}B2{GdG}f {gef}ed{g}c |{g}B3 {GdGe}B3 :]
[V:H][: {g}d3 {g}d3 | {g}d3 {g}dA{GAG}A | {g}c3 {g}c3 | {g}c3 {g}c3 |
[V:H]| {g}B2{GdG}B {g}c2{G}c | {Gdc}def  {gef}edc | {g}ded {g}cBA | {g}G3 {Gdc}d3 :]
[V:B][: c2A c2A | c2A c2A | c2A c2A | c2A c2A |
[V:B]| c2A c2A | c2A c2A | c2A c2A | c2A c2A :]
[V:S][: c/A/c/A/c/A/ c/A/c/A/c/A/ | c/A/c/A/c/A/ c/A/c/A/c/A/ | c/A/c/A/c/A/ c/A/c/A/c/A/ | c/A/c/A/c/A/ c/A/c/A/c/A/ |
[V:S]| c/A/c/A/c/A/ c/A/c/A/c/A/ | c/A/c/A/c/A/ c/A/c/A/c/A/ | c/A/c/A/c/A/ c/A/c/A/c/A/ | (Rc5c) :]
W: Parts 3 and 4 inspired by SFU's medley at the Worlds 2022
W:  https://www.youtube.com/watch?v=hAKdWmYqCEw

